public/library/reown-icon-light.svg

<svg width="76" height="48" viewBox="0 0 76 48" fill="none" xmlns="http://www.w3.org/2000/svg">
<path d="M28 14C28 6.26801 34.268 0 42 0H62C69.732 0 76 6.26801 76 14V34C76 41.732 69.732 48 62 48H42C34.268 48 28 41.732 28 34V14Z" fill="#202020"/>
<path d="M46.8164 33L53.8341 14H55.8946L48.8769 33H46.8164Z" fill="white"/>
<path d="M0 13C0 5.8203 5.8203 0 13 0C20.1797 0 26 5.8203 26 13V35C26 42.1797 20.1797 48 13 48C5.8203 48 0 42.1797 0 35V13Z" fill="#202020"/>
<path d="M11.75 29.999V27.499H14.25V29.999H11.75Z" fill="white"/>
</svg>

<svg xmlns="http://www.w3.org/2000/svg" width="76" height="48" fill="none" viewBox="0 0 76 48"><path fill="#202020" d="M28 14c0-7.732 6.268-14 14-14h20c7.732 0 14 6.268 14 14v20c0 7.732-6.268 14-14 14H42c-7.732 0-14-6.268-14-14z"/><path fill="#fff" d="m46.816 33 7.018-19h2.06l-7.017 19z"/><path fill="#202020" d="M0 13C0 5.82 5.82 0 13 0s13 5.82 13 13v22c0 7.18-5.82 13-13 13S0 42.18 0 35z"/><path fill="#fff" d="M11.75 29.999v-2.5h2.5v2.5z"/></svg>
